assets/imgs/logo.svg

<?xml version="1.0" encoding="UTF-8"?>
<!DOCTYPE svg PUBLIC "-//W3C//DTD SVG 1.1//EN" "http://www.w3.org/Graphics/SVG/1.1/DTD/svg11.dtd">
<!-- Creator: CorelDRAW X8 -->
<svg xmlns="http://www.w3.org/2000/svg" xml:space="preserve" width="250mm" height="180mm" version="1.1" style="shape-rendering:geometricPrecision; text-rendering:geometricPrecision; image-rendering:optimizeQuality; fill-rule:evenodd; clip-rule:evenodd"
viewBox="0 0 25000 18000"
 xmlns:xlink="http://www.w3.org/1999/xlink">
 <defs>
  <style type="text/css">
   <![CDATA[
    .fil0 {fill:#FF0000}
    .fil2 {fill:#00FF00}
    .fil1 {fill:#fff;fill-rule:nonzero}
   ]]>
  </style>
 </defs>
 <g id="Camada_x0020_1">
  <metadata id="CorelCorpID_0Corel-Layer"/>
  <g id="_2970630101376">
   <path class="fil1" d="M4273 15141l0 -71c63,22 130,33 203,33 102,0 153,-37 153,-112 0,-64 -37,-96 -113,-96l-77 0c-124,0 -187,-54 -187,-162 0,-114 80,-171 240,-171 69,0 134,8 194,25l0 71c-60,-22 -125,-33 -194,-33 -108,0 -162,36 -162,108 0,64 36,96 109,96l77 0c127,0 190,54 190,162 0,117 -77,175 -230,175 -73,0 -140,-8 -203,-25zm1287 -279c0,161 73,241 218,241 142,0 213,-80 213,-241 0,-158 -71,-237 -213,-237 -145,0 -218,79 -218,237zm-81 3c0,-202 100,-303 299,-303 196,0 294,101 294,303 0,200 -98,301 -294,301 -199,0 -299,-101 -299,-301zm1472 -299l0 533 311 0 0 63 -388 0 0 -596 77 0zm1080 366l0 -366 77 0 0 366c0,114 57,171 171,171 113,0 170,-57 170,-171l0 -366 77 0 0 366c0,156 -82,234 -247,234 -166,0 -248,-78 -248,-234zm1536 231c-167,-19 -251,-122 -251,-307 0,-196 104,-294 312,-294 60,0 115,8 166,25l0 67c-51,-20 -104,-29 -158,-29 -162,0 -243,77 -243,231 0,165 81,247 243,247 54,0 107,-9 158,-29l0 67c-51,17 -106,25 -166,25l-7 0 -15 28c60,0 89,24 89,71 0,48 -33,72 -100,72 -30,0 -60,-7 -90,-20l0 -45c30,13 60,20 90,20 30,0 45,-9 45,-27 0,-17 -12,-26 -35,-26l-76 0 38 -76zm1096 -301c0,161 72,241 218,241 142,0 213,-80 213,-241 0,-158 -71,-237 -213,-237 -146,0 -218,79 -218,237zm-81 3c0,-202 99,-303 299,-303 196,0 294,101 294,303 0,200 -98,301 -294,301 -200,0 -299,-101 -299,-301zm192 -438c17,-13 35,-19 55,-19 14,0 29,4 45,11 16,7 32,11 48,11 21,0 41,-7 61,-20l0 63c-17,13 -35,19 -55,19 -14,0 -29,-3 -45,-11 -16,-7 -32,-11 -48,-11 -21,0 -41,7 -61,19l0 -62zm1592 139l0 63 -312 0 0 200 298 0 0 62 -298 0 0 208 318 0 0 63 -395 0 0 -596 389 0zm796 575l0 -71c62,22 130,33 202,33 102,0 154,-37 154,-112 0,-64 -38,-96 -114,-96l-76 0c-125,0 -187,-54 -187,-162 0,-114 80,-171 239,-171 70,0 134,8 194,25l0 71c-60,-22 -124,-33 -194,-33 -108,0 -162,36 -162,108 0,64 36,96 110,96l76 0c127,0 191,54 191,162 0,117 -77,175 -231,175 -72,0 -140,-8 -202,-25zm2173 -575l0 63 -312 0 0 200 297 0 0 62 -297 0 0 208 318 0 0 63 -395 0 0 -596 389 0zm804 596l0 -596 98 0 218 497 215 -497 94 0 0 596 -69 0 0 -489 -212 489 -61 0 -214 -489 0 489 -69 0zm2455 -21c-52,17 -107,25 -167,25 -208,0 -312,-104 -312,-310 0,-196 104,-294 312,-294 60,0 115,8 167,25l0 67c-52,-20 -105,-29 -159,-29 -162,0 -243,77 -243,231 0,165 81,247 243,247 54,0 107,-9 159,-29l0 67zm1257 -3c-48,19 -100,28 -155,28 -216,0 -324,-104 -324,-310 0,-196 104,-294 313,-294 59,0 115,8 166,25l0 67c-51,-20 -104,-29 -158,-29 -162,0 -244,77 -244,231 0,165 80,247 240,247 26,0 54,-3 85,-10l0 -202 77 0 0 247zm898 -572l0 596 -77 0 0 -596 77 0z"/>
   <g>
    <path class="fil1" d="M12385 5280l46 -2511c1,-60 50,-107 110,-106 22,0 43,7 60,19l2227 1544c32,22 48,57 47,93l-8 2600c0,35 -17,67 -44,87l0 0 -2206 1626 0 1992c0,61 -49,109 -109,109 -25,0 -49,-9 -68,-24l-2268 -1597c-32,-23 -48,-60 -46,-96l8 -2044c0,-36 18,-68 45,-87l0 -1 2206 -1604zm259 -2304l-42 2355c1,35 -14,71 -45,93l-2206 1604 -7 1939 2055 1448 0 -1837 1 0c0,-34 15,-67 44,-88l2206 -1627 8 -2491 -2014 -1396z"/>
    <path class="fil1" d="M12571 10713c-49,35 -116,23 -151,-26 -35,-48 -23,-116 25,-151l2121 -1510 -886 -647c-48,-35 -59,-103 -24,-151 36,-49 103,-59 152,-24l1001 731c12,8 22,17 31,29 34,49 23,117 -26,151l-2243 1598zm778 -2844c48,35 59,103 23,151 -35,49 -103,59 -151,24l-691 -504 -2233 1572c-49,34 -117,23 -151,-26 -35,-50 -23,-117 26,-152l2297 -1617 0 1c37,-26 88,-27 126,1l754 550z"/>
    <path class="fil1" d="M10180 7061c-49,-35 -60,-102 -26,-151 35,-49 102,-61 151,-26l1410 999c49,34 60,102 26,151 -35,49 -102,60 -151,26l-1410 -999zm1790 1268c-49,-35 -60,-102 -26,-151 35,-49 102,-60 151,-26l476 337c49,35 60,102 26,151 -35,49 -102,61 -151,26l-476 -337z"/>
    <path class="fil1" d="M12431 5425c-49,-34 -61,-102 -27,-151 34,-49 102,-61 151,-26l2266 1582c49,34 61,102 27,151 -35,49 -102,61 -151,26l-2266 -1582z"/>
   </g>
   <g>
    <path class="fil1" d="M7151 12933c0,421 187,631 561,631 364,0 547,-210 547,-631 0,-414 -183,-622 -547,-622 -374,0 -561,208 -561,622zm-348 7c0,-613 303,-920 909,-920 596,0 895,307 895,920 0,610 -299,915 -895,915 -579,0 -882,-305 -909,-915z"/>
    <path class="fil1" d="M9632 13551c375,0 563,-221 563,-663 0,-376 -188,-564 -563,-564l-373 0 0 1227 373 0zm-709 292l0 -1810 709 0c599,0 898,285 898,855 0,637 -299,955 -898,955l-709 0z"/>
    <polygon class="fil1" points="12054,12033 12054,12321 11148,12321 11148,12777 12011,12777 12011,13077 11144,13077 11144,13551 12072,13551 12072,13843 10816,13843 10816,12033 "/>
    <polygon class="fil1" points="12718,12033 12718,13551 13436,13551 13436,13843 12382,13843 12382,12033 "/>
    <polygon class="fil1" points="13939,13843 13594,13843 14363,12033 14724,12033 15508,13843 15147,13843 14941,13349 14340,13349 14455,13058 14820,13058 14535,12378 "/>
    <polygon class="fil1" points="18678,12033 18678,13843 18343,13843 18343,12033 "/>
    <polygon class="fil1" points="19612,12938 18900,12033 19324,12033 19824,12694 20323,12033 20748,12033 20036,12938 20748,13843 20323,13843 19824,13182 19324,13843 18900,13843 "/>
    <path class="fil1" d="M6487 13843l-316 0 0 -931 -802 448 -667 -373 0 -361 667 374 802 -450 316 -177 0 362 0 1108zm-2236 0l316 0 0 -931 0 -362 0 -179 802 448 802 -448 0 0 316 -177 0 -185 -316 0 -802 450 -802 -450 -316 0 0 185 0 179 0 362 0 1108z"/>
    <path class="fil1" d="M17959 13843l-315 0 0 -931 -802 448 -668 -373 0 -361 668 374 802 -450 315 -177 0 362 0 1108zm-2235 0l316 0 0 -931 0 -362 0 -179 802 448 802 -448 0 0 315 -177 0 -185 -315 0 -802 450 -802 -450 -316 0 0 185 0 179 0 362 0 1108z"/>
   </g>
  </g>
 </g>
</svg>

<svg id="eUBVzXEteui1" xmlns="http://www.w3.org/2000/svg" xmlns:xlink="http://www.w3.org/1999/xlink" viewBox="0 0 17000 4000" shape-rendering="geometricPrecision" text-rendering="geometricPrecision"><g id="eUBVzXEteui2" transform="matrix(1 0 0 1 -3466.231429 -342.523438)" clip-rule="evenodd"><g id="eUBVzXEteui3" transform="matrix(1 0 0 1 -533.768571 -11330.476929)" clip-rule="evenodd"><path id="eUBVzXEteui4" d="M4273,15141L4273,15070C4336,15092,4403,15103,4476,15103C4578,15103,4629,15066,4629,14991C4629,14927,4592,14895,4516,14895L4439,14895C4315,14895,4252,14841,4252,14733C4252,14619,4332,14562,4492,14562C4561,14562,4626,14570,4686,14587L4686,14658C4626,14636,4561,14625,4492,14625C4384,14625,4330,14661,4330,14733C4330,14797,4366,14829,4439,14829L4516,14829C4643,14829,4706,14883,4706,14991C4706,15108,4629,15166,4476,15166C4403,15166,4336,15158,4273,15141ZM5560,14862C5560,15023,5633,15103,5778,15103C5920,15103,5991,15023,5991,14862C5991,14704,5920,14625,5778,14625C5633,14625,5560,14704,5560,14862ZM5479,14865C5479,14663,5579,14562,5778,14562C5974,14562,6072,14663,6072,14865C6072,15065,5974,15166,5778,15166C5579,15166,5479,15065,5479,14865ZM6951,14566L6951,15099L7262,15099L7262,15162L6874,15162L6874,14566L6951,14566ZM8031,14932L8031,14566L8108,14566L8108,14932C8108,15046,8165,15103,8279,15103C8392,15103,8449,15046,8449,14932L8449,14566L8526,14566L8526,14932C8526,15088,8444,15166,8279,15166C8113,15166,8031,15088,8031,14932ZM9567,15163C9400,15144,9316,15041,9316,14856C9316,14660,9420,14562,9628,14562C9688,14562,9743,14570,9794,14587L9794,14654C9743,14634,9690,14625,9636,14625C9474,14625,9393,14702,9393,14856C9393,15021,9474,15103,9636,15103C9690,15103,9743,15094,9794,15074L9794,15141C9743,15158,9688,15166,9628,15166L9621,15166L9606,15194C9666,15194,9695,15218,9695,15265C9695,15313,9662,15337,9595,15337C9565,15337,9535,15330,9505,15317L9505,15272C9535,15285,9565,15292,9595,15292C9625,15292,9640,15283,9640,15265C9640,15248,9628,15239,9605,15239L9529,15239L9567,15163ZM10663,14862C10663,15023,10735,15103,10881,15103C11023,15103,11094,15023,11094,14862C11094,14704,11023,14625,10881,14625C10735,14625,10663,14704,10663,14862ZM10582,14865C10582,14663,10681,14562,10881,14562C11077,14562,11175,14663,11175,14865C11175,15065,11077,15166,10881,15166C10681,15166,10582,15065,10582,14865ZM10774,14427C10791,14414,10809,14408,10829,14408C10843,14408,10858,14412,10874,14419C10890,14426,10906,14430,10922,14430C10943,14430,10963,14423,10983,14410L10983,14473C10966,14486,10948,14492,10928,14492C10914,14492,10899,14489,10883,14481C10867,14474,10851,14470,10835,14470C10814,14470,10794,14477,10774,14489L10774,14427ZM12366,14566L12366,14629L12054,14629L12054,14829L12352,14829L12352,14891L12054,14891L12054,15099L12372,15099L12372,15162L11977,15162L11977,14566L12366,14566ZM13162,15141L13162,15070C13224,15092,13292,15103,13364,15103C13466,15103,13518,15066,13518,14991C13518,14927,13480,14895,13404,14895L13328,14895C13203,14895,13141,14841,13141,14733C13141,14619,13221,14562,13380,14562C13450,14562,13514,14570,13574,14587L13574,14658C13514,14636,13450,14625,13380,14625C13272,14625,13218,14661,13218,14733C13218,14797,13254,14829,13328,14829L13404,14829C13531,14829,13595,14883,13595,14991C13595,15108,13518,15166,13364,15166C13292,15166,13224,15158,13162,15141ZM15335,14566L15335,14629L15023,14629L15023,14829L15320,14829L15320,14891L15023,14891L15023,15099L15341,15099L15341,15162L14946,15162L14946,14566L15335,14566ZM16139,15162L16139,14566L16237,14566L16455,15063L16670,14566L16764,14566L16764,15162L16695,15162L16695,14673L16483,15162L16422,15162L16208,14673L16208,15162L16139,15162ZM18594,15141C18542,15158,18487,15166,18427,15166C18219,15166,18115,15062,18115,14856C18115,14660,18219,14562,18427,14562C18487,14562,18542,14570,18594,14587L18594,14654C18542,14634,18489,14625,18435,14625C18273,14625,18192,14702,18192,14856C18192,15021,18273,15103,18435,15103C18489,15103,18542,15094,18594,15074L18594,15141ZM19851,15138C19803,15157,19751,15166,19696,15166C19480,15166,19372,15062,19372,14856C19372,14660,19476,14562,19685,14562C19744,14562,19800,14570,19851,14587L19851,14654C19800,14634,19747,14625,19693,14625C19531,14625,19449,14702,19449,14856C19449,15021,19529,15103,19689,15103C19715,15103,19743,15100,19774,15093L19774,14891L19851,14891L19851,15138ZM20749,14566L20749,15162L20672,15162L20672,14566L20749,14566Z" clip-rule="evenodd" fill="rgb(0,0,0)" stroke="none" stroke-width="1"/><g id="eUBVzXEteui5" clip-rule="evenodd"><path id="eUBVzXEteui6" d="M7151,12933C7151,13354,7338,13564,7712,13564C8076,13564,8259,13354,8259,12933C8259,12519,8076,12311,7712,12311C7338,12311,7151,12519,7151,12933ZM6803,12940C6803,12327,7106,12020,7712,12020C8308,12020,8607,12327,8607,12940C8607,13550,8308,13855,7712,13855C7133,13855,6830,13550,6803,12940Z" clip-rule="evenodd" fill="rgb(0,0,0)" stroke="none" stroke-width="1"/><path id="eUBVzXEteui7" d="M9632,13551C10007,13551,10195,13330,10195,12888C10195,12512,10007,12324,9632,12324L9259,12324L9259,13551L9632,13551ZM8923,13843L8923,12033L9632,12033C10231,12033,10530,12318,10530,12888C10530,13525,10231,13843,9632,13843L8923,13843Z" clip-rule="evenodd" fill="rgb(0,0,0)" stroke="none" stroke-width="1"/><polygon id="eUBVzXEteui8" points="12054,12033 12054,12321 11148,12321 11148,12777 12011,12777 12011,13077 11144,13077 11144,13551 12072,13551 12072,13843 10816,13843 10816,12033" clip-rule="evenodd" fill="rgb(0,0,0)" stroke="none" stroke-width="1"/><polygon id="eUBVzXEteui9" points="12718,12033 12718,13551 13436,13551 13436,13843 12382,13843 12382,12033" clip-rule="evenodd" fill="rgb(0,0,0)" stroke="none" stroke-width="1"/><polygon id="eUBVzXEteui10" points="13939,13843 13594,13843 14363,12033 14724,12033 15508,13843 15147,13843 14941,13349 14340,13349 14455,13058 14820,13058 14535,12378" clip-rule="evenodd" fill="rgb(0,0,0)" stroke="none" stroke-width="1"/><polygon id="eUBVzXEteui11" points="18678,12033 18678,13843 18343,13843 18343,12033" clip-rule="evenodd" fill="rgb(0,0,0)" stroke="none" stroke-width="1"/><polygon id="eUBVzXEteui12" points="19612,12938 18900,12033 19324,12033 19824,12694 20323,12033 20748,12033 20036,12938 20748,13843 20323,13843 19824,13182 19324,13843 18900,13843" clip-rule="evenodd" fill="rgb(0,0,0)" stroke="none" stroke-width="1"/><path id="eUBVzXEteui13" d="M6487,13843L6171,13843L6171,12912L5369,13360L4702,12987L4702,12626L5369,13000L6171,12550L6487,12373L6487,12735L6487,13843ZM4251,13843L4567,13843L4567,12912L4567,12550L4567,12371L5369,12819L6171,12371L6171,12371L6487,12194L6487,12009L6171,12009L5369,12459L4567,12009L4251,12009L4251,12194L4251,12373L4251,12735L4251,13843Z" clip-rule="evenodd" fill="rgb(0,0,0)" stroke="none" stroke-width="1"/><path id="eUBVzXEteui14" d="M17959,13843L17644,13843L17644,12912L16842,13360L16174,12987L16174,12626L16842,13000L17644,12550L17959,12373L17959,12735L17959,13843ZM15724,13843L16040,13843L16040,12912L16040,12550L16040,12371L16842,12819L17644,12371L17644,12371L17959,12194L17959,12009L17644,12009L16842,12459L16040,12009L15724,12009L15724,12194L15724,12373L15724,12735L15724,13843Z" clip-rule="evenodd" fill="rgb(0,0,0)" stroke="none" stroke-width="1"/></g></g></g></svg>
